components/Common/Svg/svgs/productLab.svg

<svg width="26" height="32" viewBox="0 0 26 32" fill="none" xmlns="http://www.w3.org/2000/svg">
<path d="M24.7883 25.2892L18.0277 12.0816V1.875H18.9468C19.4646 1.875 19.8843 1.45525 19.8843 0.9375C19.8843 0.41975 19.4646 0 18.9468 0H7.05371C6.53596 0 6.11621 0.41975 6.11621 0.9375C6.11621 1.45525 6.53596 1.875 7.05371 1.875H7.9729V12.0816L1.21221 25.2892C0.474777 26.7299 0.538652 28.4143 1.38296 29.795C2.22728 31.1757 3.69753 32 5.31596 32H20.6846C22.303 32 23.7733 31.1757 24.6176 29.795C25.462 28.4143 25.5258 26.7299 24.7883 25.2892ZM9.74496 12.7347C9.81265 12.6025 9.8479 12.4561 9.8479 12.3076V1.875H16.1526V12.3076C16.1526 12.4561 16.1878 12.6025 16.2555 12.7347L18.8642 17.8309H7.13634L9.74496 12.7347ZM20.6846 30.125H5.31596C4.35584 30.125 3.48353 29.6359 2.98259 28.8168C2.70078 28.356 2.56553 27.8383 2.57896 27.3213C2.58646 27.0341 2.63984 26.7471 2.73946 26.4702C2.77934 26.3595 6.17653 19.7059 6.17653 19.7059H19.824C19.824 19.7059 23.1722 26.2509 23.1958 26.3054C23.3376 26.6322 23.4127 26.9766 23.4216 27.3213C23.435 27.8383 23.2998 28.356 23.018 28.8168C22.5171 29.6359 21.6448 30.125 20.6846 30.125V30.125Z" fill="#161616"/>
</svg>

<svg width="26" height="32" viewBox="0 0 26 32" fill="none" xmlns="http://www.w3.org/2000/svg"><path d="m24.788 25.29-6.76-13.208V1.875h.919a.937.937 0 1 0 0-1.875H7.054a.938.938 0 0 0 0 1.875h.919v10.207l-6.76 13.207a4.578 4.578 0 0 0 .17 4.506A4.578 4.578 0 0 0 5.316 32h15.369a4.578 4.578 0 0 0 3.933-2.205 4.578 4.578 0 0 0 .17-4.506ZM9.745 12.734a.937.937 0 0 0 .103-.427V1.875h6.305v10.433c0 .148.035.294.103.427l2.608 5.096H7.136l2.609-5.096Zm10.94 17.39H5.316c-.96 0-1.832-.49-2.333-1.308a2.725 2.725 0 0 1-.244-2.347c.04-.11 3.438-6.764 3.438-6.764h13.647s3.348 6.545 3.372 6.6c.142.326.217.67.226 1.015a2.725 2.725 0 0 1-.404 1.496 2.716 2.716 0 0 1-2.333 1.308Z" fill="#161616"/></svg>
